X: 7
T: The Banks Of Lough Gowna
R: jig
M: 6/8
L: 1/8
K: Amin
~A3 AGE|EDE ~G3|~A3 AGE|=c2d ed^c|-
~A3 AGE|EDE GAB|cde ged|1 cAA A2G:|2 cAA A2B||
|:cde g2a|gea ged|cde g2a|geg a2B|-
cde g2a|gea ged|cde ged|1 cAA A2B:|2 BcB Adc|]


Tune 775	Setting 28975

